svgs/sharp-regular/transformer-bolt.svg

<svg xmlns="http://www.w3.org/2000/svg" viewBox="0 0 384 512"><!--! Font Awesome Pro 6.6.0 by @fontawesome - https://fontawesome.com License - https://fontawesome.com/license (Commercial License) Copyright 2024 Fonticons, Inc. --><path d="M136 0L88 0l0 24 0 8L64 32 48 32l0 32 16 0 24 0 48 0 24 0 16 0 0-32-16 0-24 0 0-8 0-24zM296 0L248 0l0 24 0 8-24 0-16 0 0 32 16 0 24 0 48 0 24 0 16 0 0-32-16 0-24 0 0-8 0-24zM64 96L48 96l0 32 16 0 96 0 16 0 0-32-16 0L64 96zm160 0l-16 0 0 32 16 0 96 0 16 0 0-32-16 0-96 0zM24 160L0 160l0 48 24 0 8 0 0 256-8 0L0 464l0 48 24 0 32 0 272 0 32 0 24 0 0-48-24 0-8 0 0-256 8 0 24 0 0-48-24 0-32 0L56 160l-32 0zM80 464l0-256 224 0 0 256L80 464zm96-112l-24 80 24 0 96-88 0-24-64 0 24-80-24 0-96 88 0 24 64 0z"/></svg>

<svg xmlns="http://www.w3.org/2000/svg" viewBox="0 0 384 512"><!--! Font Awesome Pro 6.4.0 by @fontawesome - https://fontawesome.com License - https://fontawesome.com/license (Commercial License) Copyright 2023 Fonticons, Inc. --><path d="M136 0H88V24v8H64 48V64H64 88h48 24 16V32H160 136V24 0zM296 0H248V24v8H224 208V64h16 24 48 24 16V32H320 296V24 0zM64 96H48v32H64h96 16V96H160 64zm160 0H208v32h16 96 16V96H320 224zM24 160H0v48H24h8V464H24 0v48H24 56 328h32 24V464H360h-8V208h8 24V160H360 328 56 24zM80 464V208H304V464H80zm96-112l-24 80h24l96-88V320H208l24-80H208l-96 88v24h64z"/></svg>
